X: 1
T:Hanter Dro
R:Hanter Dro
M:3/4
L:1/16
K:C
A2cB A2G2 A4  |A2Bc d2B2 c2B2|A2cB A2G2 A4  |A2Bc d2B2 c2B2||
|:A2Bc d2B2 c2A2|c2BA G2A2 B4  |A2Bc d2B2 c2A2 |A2Bc A2G2 A4  :|
